src/assets/icons/telegram.svg

<svg width="24" height="24" viewBox="0 0 24 24" fill="none" xmlns="http://www.w3.org/2000/svg">
<path fill-rule="evenodd" clip-rule="evenodd" d="M22 12C22 17.5228 17.5228 22 12 22C6.47715 22 2 17.5228 2 12C2 6.47715 6.47715 2 12 2C17.5228 2 22 6.47715 22 12ZM12.3583 9.38245C11.3857 9.78701 9.44176 10.6243 6.52656 11.8945C6.05318 12.0827 5.8052 12.2669 5.78262 12.4469C5.74447 12.7513 6.12558 12.8711 6.64454 13.0343C6.71513 13.0565 6.78828 13.0795 6.86326 13.1039C7.37385 13.2698 8.06067 13.464 8.41772 13.4717C8.7416 13.4787 9.10309 13.3452 9.50218 13.0711C12.2259 11.2325 13.632 10.3032 13.7202 10.2832C13.7825 10.269 13.8688 10.2512 13.9273 10.3032C13.9858 10.3552 13.98 10.4536 13.9738 10.48C13.9361 10.641 12.4401 12.0318 11.6659 12.7515C11.4246 12.9759 11.2534 13.135 11.2184 13.1714C11.14 13.2528 11.0601 13.3298 10.9833 13.4039C10.509 13.8611 10.1532 14.204 11.003 14.764C11.4113 15.0331 11.7381 15.2556 12.0641 15.4776C12.4201 15.7201 12.7752 15.9619 13.2347 16.2631C13.3517 16.3398 13.4635 16.4195 13.5724 16.4971C13.9867 16.7925 14.3589 17.0579 14.8188 17.0155C15.086 16.991 15.362 16.7397 15.5022 15.9903C15.8335 14.2193 16.4847 10.3821 16.6352 8.80082C16.6483 8.66229 16.6318 8.48499 16.6184 8.40716C16.6051 8.32932 16.5773 8.21843 16.4761 8.13634C16.3563 8.03912 16.1713 8.01862 16.0886 8.02008C15.7125 8.0267 15.1354 8.22736 12.3583 9.38245Z" fill="black"/>
</svg>

<svg width="24" height="24" viewBox="0 0 24 24" fill="none" xmlns="http://www.w3.org/2000/svg"><path fill-rule="evenodd" clip-rule="evenodd" d="M22 12c0 5.523-4.477 10-10 10S2 17.523 2 12 6.477 2 12 2s10 4.477 10 10zm-9.642-2.618c-.972.405-2.916 1.242-5.831 2.513-.474.188-.722.372-.744.552-.039.304.343.424.862.587l.218.07c.51.166 1.198.36 1.555.368.324.007.685-.127 1.084-.4 2.724-1.84 4.13-2.769 4.218-2.789.063-.014.149-.032.207.02.059.052.053.15.047.177-.038.161-1.534 1.552-2.308 2.271-.241.225-.413.384-.448.42-.078.082-.158.159-.235.233-.474.457-.83.8.02 1.36.408.27.735.492 1.061.714.356.242.711.484 1.17.785.118.077.23.156.338.234.415.296.787.56 1.247.518.267-.024.543-.275.683-1.025.332-1.77.983-5.608 1.133-7.19a1.763 1.763 0 00-.017-.393.421.421 0 00-.142-.27c-.12-.098-.305-.118-.387-.117-.376.007-.954.207-3.73 1.362z" fill="#000"/></svg>
